icons/brainshave.svg

<svg width="16" height="15" xmlns="http://www.w3.org/2000/svg" version="1.1"><path fill="#000000" d="M4,1h8v1h1v2h1v6h-1v3h-4v1h-1v-2h4v-1h-3v-1h-1v-1h1v1h3v-1h1v-4h-4v1h-1v2h-1v-1h-1v3h-1v4h-1v-3h-1v-1h-1v-6h1v-2h1v-1M5,2h-1v2h4v-1h1v1h3v-2h-1v1h-1v-1h-4v1h-1v-1M10,6h1v2h-1z"/></svg>

<svg width="16" height="15" xmlns="http://www.w3.org/2000/svg"><path d="M4 1h8v1h1v2h1v6h-1v3H9v1H8v-2h4v-1H9v-1H8V9h1v1h3V9h1V5H9v1H8v2H7V7H6v3H5v4H4v-3H3v-1H2V4h1V2h1V1m1 1H4v2h4V3h1v1h3V2h-1v1h-1V2H6v1H5V2m5 4h1v2h-1z"/></svg>
